X: 20094
T: Jimmy On The Moor
R: reel
M: 4/4
K: Eminor
gfeg fedf|edB/B/A GABc|BAGB AGFA|GEFD E2 z2|
gfeg fedf|edB/B/A GABc|BAGB AGFD|GEFD E2 B,/B,/B,||
B,EFB c2 BA|GAFG EFDE|B,EFB cAB/B/A|G2 e2 z4|
B,EFB c2 BA|GAFG EFDg-|gc=fg egc^f|~f2 ef B2 f/f/f||

